icons/folder-i18n-open.svg

<svg xmlns="http://www.w3.org/2000/svg" viewBox="0 0 32 32">
  <path d="M28.96692,12H9.44152a2,2,0,0,0-1.89737,1.36754L4,24V10H28a2,2,0,0,0-2-2H15.1241a2,2,0,0,1-1.28038-.46357L12.5563,6.46357A2,2,0,0,0,11.27592,6H4A2,2,0,0,0,2,8V24a2,2,0,0,0,2,2H26l4.80523-11.21213A2,2,0,0,0,28.96692,12Z" style="fill: #5c6bc0"/>
  <path d="M22.79071,23.762,20.482,21.5034l.02716-.02689A15.72681,15.72681,0,0,0,23.8817,15.6H26.545V13.8H20.18168V12H18.36336v1.8H12v1.8H22.15542a14.16138,14.16138,0,0,1-2.88214,4.81444A14.074,14.074,0,0,1,17.17278,17.4H15.35446a15.78656,15.78656,0,0,0,2.70861,4.1034l-4.628,4.51718,1.29168,1.27867,4.54505-4.50074,2.82782,2.79933.69112-1.83585M27.90916,19.2H26.09084L22,30h1.81832l1.01705-2.70075h4.3187l1.0261,2.69925H32l-4.09084-10.8m-2.38268,6.30074L26.99924,21.602,28.472,25.49925Z" style="fill: #c5cae9"/>
</svg>

<svg xmlns="http://www.w3.org/2000/svg" viewBox="0 0 32 32"><path fill="#5c6bc0" d="M28.967 12H9.442a2 2 0 0 0-1.898 1.368L4 24V10h24a2 2 0 0 0-2-2H15.124a2 2 0 0 1-1.28-.464l-1.288-1.072A2 2 0 0 0 11.276 6H4a2 2 0 0 0-2 2v16a2 2 0 0 0 2 2h22l4.805-11.212A2 2 0 0 0 28.967 12Z"/><path fill="#c5cae9" d="m22.79 23.762-2.308-2.259.027-.026a15.727 15.727 0 0 0 3.373-5.877h2.663v-1.8h-6.363V12h-1.819v1.8H12v1.8h10.155a14.161 14.161 0 0 1-2.882 4.814 14.074 14.074 0 0 1-2.1-3.014h-1.819a15.787 15.787 0 0 0 2.71 4.103l-4.629 4.518 1.292 1.278 4.545-4.5 2.828 2.799.69-1.836m5.12-4.562h-1.82L22 30h1.818l1.017-2.7h4.32l1.025 2.699H32l-4.09-10.8m-2.384 6.3L27 21.602l1.473 3.897Z"/></svg>
